; generated by Slic3r 1.2.9 on 2018-06-22 at 16:43:33

; external perimeters extrusion width = 0.40mm
; perimeters extrusion width = 0.68mm
; infill extrusion width = 3.15mm
; solid infill extrusion width = 0.68mm
; top infill extrusion width = 0.68mm

M107
M190 S65 ; set bed temperature
M104 S205 ; set temperature
G28 ; home all axes
G1 Z5 F5000 ; lift nozzle

M109 S205 ; wait for temperature to be reached
G21 ; set units to millimeters
G90 ; use absolute coordinates
M82 ; use absolute distances for extrusion
G92 E0
G1 Z0.400 F7800.000
G1 E-2.00000 F2400.00000
G92 E0
G1 X79.779 Y71.404 F7800.000
G1 E2.00000 F2400.00000
G1 X81.551 Y69.923 E2.27422 F1800.000
G1 X83.720 Y69.131 E2.54845
G1 X84.905 Y69.026 E2.68976
G1 X115.405 Y69.026 E6.31210
G1 X117.680 Y69.423 E6.58633
G1 X119.685 Y70.567 E6.86055 F1800.000
G1 X121.185 Y72.323 E7.13478
G1 X122.001 Y74.483 E7.40900
G1 X122.119 Y75.740 E7.55897
G1 X122.119 Y95.813 E9.94295
G1 X121.808 Y124.331 E13.33010
G1 X121.387 Y126.601 E13.60433
G1 X120.221 Y128.594 E13.87855
G1 X118.449 Y130.074 E14.15278
G1 X116.280 Y130.867 E14.42700
G1 X115.095 Y130.972 E14.56832
G1 X84.595 Y130.972 E18.19066
G1 X82.320 Y130.575 E18.46488
G1 X80.315 Y129.431 E18.73911
G1 X78.815 Y127.675 E19.01333
G1 X77.999 Y125.515 E19.28756
G1 X77.881 Y124.258 E19.43752
G1 X77.881 Y104.164 E21.82401
G1 X78.192 Y75.667 E25.20866
G1 X78.613 Y73.397 E25.48289
G1 X79.749 Y71.455 E25.74999
G1 E23.74999 F2400.00000
G92 E0
G1 X104.989 Y117.745 F7800.000
G1 E2.00000 F2400.00000
G1 X104.612 Y118.429 E2.09278 F1800.000
G1 X104.272 Y118.938 E2.16550
G1 X104.056 Y119.223 E2.20800
G1 X103.600 Y119.748 E2.29054
G1 X103.099 Y120.230 E2.37307
G1 X102.826 Y120.461 E2.41555
G1 X102.335 Y120.827 E2.48828
G1 X101.671 Y121.239 E2.58109
G1 X101.048 Y121.549 E2.66378
G1 X100.718 Y121.687 E2.70622
G1 X100.141 Y121.889 E2.77884
G1 X99.465 Y122.064 E2.86177
G1 X98.776 Y122.180 E2.94482
G1 X98.078 Y122.236 E3.02788
G1 X97.378 Y122.230 E3.11110
G1 X96.601 Y122.150 E3.20389
G1 X95.999 Y122.037 E3.27661
G1 X95.652 Y121.949 E3.31910
G1 X94.991 Y121.734 E3.40164
G1 X94.351 Y121.462 E3.48418
G1 X94.032 Y121.301 E3.52667
G1 X93.503 Y120.992 E3.59939
G1 X92.865 Y120.542 E3.69219
G1 X92.332 Y120.087 E3.77541
G1 X91.845 Y119.591 E3.85794
G1 X91.612 Y119.320 E3.90039
G1 X91.242 Y118.833 E3.97301
G1 X90.867 Y118.245 E4.05593
G1 X90.543 Y117.624 E4.13899
G1 X90.275 Y116.977 E4.22220
G1 X90.044 Y116.231 E4.31500
G1 X89.914 Y115.632 E4.38773
G1 X89.859 Y115.279 E4.43021
G1 X89.798 Y114.587 E4.51275
G1 X89.798 Y113.892 E4.59529
G1 X89.822 Y113.535 E4.63778
G1 X89.900 Y112.927 E4.71050
G1 X90.064 Y112.163 E4.80330
G1 X90.275 Y111.495 E4.88651
G1 X90.541 Y110.853 E4.96905
G1 X90.700 Y110.533 E5.01151
G1 X91.003 Y110.002 E5.08413
G1 X91.399 Y109.425 E5.16718
G1 X91.899 Y108.825 E5.26000
G1 X92.330 Y108.389 E5.33275
G1 X92.596 Y108.151 E5.37521
G1 X93.144 Y107.723 E5.45775
G1 X93.731 Y107.341 E5.54097
G1 X94.423 Y106.979 E5.63376
G1 X94.988 Y106.741 E5.70647
G1 X95.326 Y106.623 E5.74897
G1 X95.995 Y106.438 E5.83151
G1 X96.679 Y106.311 E5.91405
G1 X97.034 Y106.269 E5.95653
G1 X97.645 Y106.235 E6.02926 F1800.000
G1 X98.426 Y106.258 E6.12206
G1 X99.122 Y106.344 E6.20527
G1 X99.805 Y106.490 E6.28820
G1 X100.390 Y106.666 E6.36082
G1 X100.725 Y106.789 E6.40326
G1 X101.362 Y107.072 E6.48594
G1 X102.043 Y107.454 E6.57875
G1 X102.550 Y107.799 E6.65149
G1 X102.833 Y108.018 E6.69396
G1 X103.353 Y108.478 E6.77650
G1 X103.832 Y108.982 E6.85904
G1 X104.061 Y109.257 E6.90154
G1 X104.422 Y109.751 E6.97425
G1 X104.829 Y110.418 E7.06703
G1 X105.136 Y111.048 E7.15026
G1 X105.386 Y111.701 E7.23332
G1 X105.579 Y112.373 E7.31638
G1 X105.711 Y113.056 E7.39892
G1 X105.755 Y113.410 E7.44137
G1 X105.795 Y114.020 E7.51399
G1 X105.784 Y114.720 E7.59704
G1 X105.698 Y115.496 E7.68986
G1 X105.579 Y116.097 E7.76261
G1 X105.488 Y116.443 E7.80507
G1 X105.268 Y117.102 E7.88761
G1 X105.013 Y117.690 E7.96371
G1 X105.206 Y118.081 F7800.000
G1 E5.96371 F2400.00000
G92 E0
G1 X99.225 Y122.721 F7800.000
G1 X98.002 Y123.048 F7800.000
G1 X95.404 Y122.887 F7800.000
G1 X93.816 Y122.600 F7800.000
G1 X93.108 Y122.426 F7800.000
G1 X92.968 Y122.388 F7800.000
G1 X92.686 Y122.308 F7800.000
G1 X92.583 Y122.279 F7800.000
G1 X92.639 Y122.131 F7800.000
G1 E2.00000 F2400.00000
G1 X92.544 Y122.430 E2.03726 F1800.000
G1 X86.423 Y122.430 E2.76425
G1 X86.423 Y106.065 E4.70777
G1 X92.510 Y106.065 E5.43074
G1 X92.601 Y106.372 E5.46873
G1 X92.313 Y106.560 E5.50961
G1 X91.679 Y107.055 E5.60514
G1 X91.346 Y107.353 E5.65830
G1 X90.840 Y107.863 E5.74355
G1 X90.258 Y108.563 E5.85163
G1 X89.792 Y109.243 E5.94950
G1 X89.438 Y109.861 E6.03417
G1 X89.240 Y110.263 E6.08732
G1 X88.932 Y111.005 E6.18284
G1 X88.682 Y111.797 E6.28147
G1 X88.491 Y112.686 E6.38941
G1 X88.399 Y113.397 E6.47454
G1 X88.370 Y113.845 E6.52785
G1 X88.370 Y114.649 E6.62338
G1 X88.440 Y115.450 E6.71890
G1 X88.509 Y115.894 E6.77217
G1 X88.661 Y116.594 E6.85733
G1 X88.930 Y117.463 E6.96531
G1 X89.248 Y118.230 E7.06391
G1 X89.629 Y118.961 E7.16180
G1 X90.070 Y119.651 E7.25909
G1 X90.501 Y120.218 E7.34376
G1 X90.793 Y120.558 E7.39688
G1 X91.356 Y121.132 E7.49240
G1 X91.987 Y121.671 E7.59100
G1 X92.590 Y122.096 E7.67858
G1 X95.979 Y122.768 F7800.000
G1 X95.932 Y123.144 E7.72351 F1800.000
G1 X85.709 Y123.144 E8.93764
G1 X85.709 Y105.351 E11.05079
G1 X95.854 Y105.351 E12.25571
G1 X95.905 Y105.722 E12.30015
G1 X95.112 Y105.942 E12.39782
G1 X94.731 Y106.075 E12.44573
G1 X94.119 Y106.332 E12.52465
G1 X93.370 Y106.724 E12.62500
G1 X92.728 Y107.141 E12.71593
G1 X92.138 Y107.603 E12.80496
G1 X91.838 Y107.871 E12.85278
G1 X91.370 Y108.344 E12.93177
G1 X90.828 Y108.994 E13.03223
G1 X90.398 Y109.622 E13.12269
G1 X90.069 Y110.197 E13.20133
G1 X89.891 Y110.558 E13.24913
G1 X89.603 Y111.250 E13.33816
G1 X89.373 Y111.980 E13.42909
G1 X89.195 Y112.807 E13.52945
G1 X89.111 Y113.466 E13.60838
G1 X89.084 Y113.868 E13.65628
G1 X89.084 Y114.618 E13.74531
G1 X89.150 Y115.365 E13.83434
G1 X89.211 Y115.763 E13.88222
G1 X89.353 Y116.413 E13.96117
G1 X89.602 Y117.220 E14.06155
G1 X89.895 Y117.927 E14.15246
G1 X90.248 Y118.603 E14.24294
G1 X90.656 Y119.242 E14.33304
G1 X91.057 Y119.769 E14.41169
G1 X91.319 Y120.074 E14.45947
G1 X91.844 Y120.609 E14.54850
G1 X92.426 Y121.107 E14.63940
G1 X93.117 Y121.594 E14.73979
G1 X93.691 Y121.929 E14.81873
G1 X94.051 Y122.110 E14.86661
G1 X94.741 Y122.403 E14.95564
G1 X95.454 Y122.635 E15.04468
G1 X95.921 Y122.754 E15.10189
G1 X102.964 Y122.119 F7800.000
G1 X103.140 Y122.009 E15.12659 F1800.000
G1 X103.715 Y121.580 E15.21177
G1 X104.058 Y121.291 E15.26501
G1 X104.636 Y120.732 E15.36054
G1 X105.164 Y120.125 E15.45606
G1 X105.436 Y119.768 E15.50940
G1 X105.833 Y119.171 E15.59451
G1 X106.272 Y118.376 E15.70241
G1 X106.603 Y117.614 E15.80107
G1 X106.858 Y116.851 E15.89659
G1 X106.972 Y116.418 E15.94978
G1 X107.111 Y115.714 E16.03501
G1 X107.211 Y114.810 E16.14307
G1 X107.224 Y113.985 E16.24098
G1 X107.178 Y113.274 E16.32564
G1 X107.122 Y112.830 E16.37878
G1 X106.969 Y112.040 E16.47430
G1 X106.742 Y111.248 E16.57219
G1 X106.447 Y110.478 E16.67009
G1 X106.083 Y109.731 E16.76876
G1 X105.610 Y108.956 E16.87665
G1 X105.187 Y108.378 E16.96174
G1 X104.900 Y108.032 E17.01510
G1 X104.346 Y107.449 E17.11062
G1 X103.743 Y106.916 E17.20615
G1 X103.389 Y106.642 E17.25937
G1 X102.985 Y106.368 E17.31734
G1 X103.078 Y106.065 E17.35492
G1 X113.266 Y106.065 E18.56490
G1 X113.266 Y122.430 E20.50842
G1 X103.052 Y122.430 E21.72150
G1 X102.980 Y122.176 E21.75279
G1 X99.591 Y122.770 F7800.000
G1 X100.349 Y122.573 E21.84574 F1800.000
G1 X100.974 Y122.355 E21.92439
G1 X101.345 Y122.199 E21.97217
G1 X102.019 Y121.864 E22.06161
G1 X102.738 Y121.418 E22.16202
G1 X103.271 Y121.021 E22.24098
G1 X103.579 Y120.760 E22.28884
G1 X104.118 Y120.240 E22.37787
G1 X104.610 Y119.674 E22.46690
G1 X104.854 Y119.353 E22.51482
G1 X105.223 Y118.800 E22.59373
G1 X105.631 Y118.060 E22.69407
G1 X105.936 Y117.358 E22.78501
G1 X106.173 Y116.647 E22.87404
G1 X106.275 Y116.258 E22.92187
G1 X106.405 Y115.605 E23.00085
G1 X106.497 Y114.765 E23.10130
G1 X106.510 Y114.003 E23.19178
G1 X106.467 Y113.342 E23.27042
G1 X106.416 Y112.943 E23.31821
G1 X106.274 Y112.207 E23.40724
G1 X106.064 Y111.474 E23.49772
G1 X105.792 Y110.763 E23.58820
G1 X105.456 Y110.075 E23.67915
G1 X105.016 Y109.354 E23.77948
G1 X104.624 Y108.817 E23.85838
G1 X104.366 Y108.507 E23.90631
G1 X103.850 Y107.963 E23.99535
G1 X103.288 Y107.467 E24.08438
G1 X102.969 Y107.220 E24.13222
G1 X102.419 Y106.847 E24.21119
G1 X101.682 Y106.433 E24.31161
G1 X100.994 Y106.127 E24.40104
G1 X100.616 Y105.988 E24.44881
G1 X99.982 Y105.797 E24.52746
G1 X99.688 Y105.735 E24.56317
G1 X99.729 Y105.351 E24.60897
G1 X113.981 Y105.351 E26.30159
G1 X113.981 Y123.144 E28.41474
G1 X99.639 Y123.144 E30.11800
G1 X99.599 Y122.829 E30.15568
G1 X84.995 Y123.858 F7800.000
G1 X84.995 Y104.637 E32.43846 F1800.000
G1 X114.695 Y104.637 E35.96579
G1 X114.695 Y123.858 E38.24857
G1 X85.055 Y123.858 E41.76877
G1 X85.195 Y123.512 F7800.000
G1 X87.202 Y121.994 F7800.000
G1 X86.859 Y121.651 E41.82676 F1800.000
G1 X86.859 Y120.634 E41.94831
G1 X88.218 Y121.994 E42.17820
G1 X89.235 Y121.994 E42.29975
G1 X86.859 Y119.618 E42.70153
G1 X86.859 Y118.601 F7800.000
G1 X90.252 Y121.994 E43.27522 F1800.000
G1 X91.268 Y121.994 E43.39677
G1 X86.859 Y117.584 E44.14235
G1 X88.829 Y118.538 F7800.000
G1 X86.859 Y116.568 E44.47546 F1800.000
G1 X88.263 Y116.956 E44.64969
G1 X86.859 Y115.551 E44.88719
G1 X88.011 Y115.687 E45.02590
G1 X86.859 Y114.534 E45.22073
G1 X86.859 Y113.518 E45.34228
G1 X87.935 Y114.594 E45.52420
G1 X87.959 Y113.601 E45.64284
G1 X86.859 Y112.501 E45.82892
G1 X86.859 Y111.484 E45.95047
G1 X88.072 Y112.697 E46.15559
G1 X88.252 Y111.861 E46.25791
G1 X86.859 Y110.468 E46.49346
G1 X86.859 Y109.451 E46.61501
G1 X88.491 Y111.083 E46.89102
G1 X88.780 Y110.356 E46.98461
G1 X86.859 Y108.434 E47.30953
G1 X86.859 Y107.417 E47.43108
G1 X89.110 Y109.669 E47.81179
G1 X89.484 Y109.026 E47.90069
G1 X86.959 Y106.501 E48.32771
G1 X87.975 Y106.501 E48.44926
G1 X89.898 Y108.423 E48.77429
G1 X90.354 Y107.863 E48.86068
G1 X88.992 Y106.501 E49.09104
G1 X90.009 Y106.501 E49.21259
G1 X90.841 Y107.333 E49.35332
G1 X91.025 Y106.501 E49.45524
G1 X91.362 Y106.838 E49.51225
G1 X92.897 Y106.112 F7800.000
G1 X93.893 Y105.868 E49.63403 F1800.000
G1 X94.586 Y105.727 E49.71804
G1 X96.235 Y105.497 F7800.000
G1 X97.653 Y105.436 E50.07565 F1800.000
G1 X98.509 Y105.449 E50.29122
G1 X99.354 Y105.501 E50.50425
G1 X101.001 Y105.728 F7800.000
G1 X101.928 Y105.920 E50.61675 F1800.000
G1 X102.689 Y106.118 E50.71007
G1 X104.334 Y106.501 F7800.000
G1 X112.831 Y114.997 E52.15013 F1800.000
G1 X112.831 Y113.978 E52.27227
G1 X105.354 Y106.501 E53.53959
G1 X106.373 Y106.501 E53.66174
G1 X112.831 Y112.959 E54.75631
G1 X112.831 Y111.940 E54.87846
G1 X107.392 Y106.501 E55.80029
G1 X108.411 Y106.501 E55.92244
G1 X112.831 Y110.920 E56.67154
G1 X112.831 Y109.901 E56.79368
G1 X109.430 Y106.501 E57.37004
G1 X110.450 Y106.501 E57.49218
G1 X112.831 Y108.882 E57.89580
G1 X112.831 Y107.863 E58.01794
G1 X111.469 Y106.501 E58.24882
G1 X112.488 Y106.501 E58.37096
G1 X112.831 Y106.844 E58.42910
G1 X106.766 Y109.951 F7800.000
G1 X112.831 Y116.016 E59.45707 F1800.000
G1 X112.831 Y117.036 E59.57922
G1 X107.325 Y111.530 E60.51234
G1 X107.578 Y112.801 E60.66767
G1 X112.831 Y118.055 E61.55805
G1 X112.831 Y119.074 E61.68020
G1 X107.659 Y113.902 E62.55679
G1 X107.625 Y114.887 E62.67492
G1 X112.831 Y120.093 E63.55729
G1 X112.831 Y121.112 E63.67944
G1 X107.513 Y115.794 E64.58085
G1 X107.331 Y116.632 E64.68359
G1 X112.694 Y121.994 E65.59244
G1 X111.674 Y121.994 E65.71459
G1 X107.089 Y117.408 E66.49182
G1 X106.799 Y118.137 E66.58586
G1 X110.655 Y121.994 E67.23952
G1 X109.636 Y121.994 E67.36166
G1 X106.462 Y118.820 E67.89956
G1 X106.090 Y119.467 E67.98899
G1 X108.617 Y121.994 E68.41735
G1 X107.598 Y121.994 E68.53949
G1 X105.675 Y120.072 E68.86529
G1 X105.217 Y120.633 E68.95210
G1 X106.578 Y121.994 E69.18281
G1 X105.559 Y121.994 E69.30495
G1 X104.727 Y121.162 E69.44594
G1 X104.203 Y121.657 E69.53235
G1 X104.540 Y121.994 E69.58950
G1 X102.669 Y122.387 F7800.000
G1 X101.555 Y122.648 E69.72532 F1800.000
G1 X100.937 Y122.767 E69.80005
G1 X99.261 Y123.001 F7800.000
G1 X98.087 Y123.047 E70.09576 F1800.000
G1 X97.311 Y123.043 E70.29121
G1 X96.311 Y122.992 E70.54347
G1 X94.637 Y122.766 F7800.000
G1 X93.817 Y122.601 E70.64285 F1800.000
G1 X92.936 Y122.376 E70.75080
G1 E68.75080 F2400.00000
G92 E0
G1 X115.095 Y104.237 F7800.000
G1 X115.095 Y101.926 F7800.000
G1 X115.405 Y97.740 F7800.000
G1 X115.405 Y95.740 F7800.000
G1 X108.933 Y88.431 F7800.000
G1 E2.00000 F2400.00000
G1 X108.490 Y88.097 E2.06591 F1800.000
G1 X108.163 Y87.754 E2.12221
G1 X107.983 Y87.514 E2.15784
G1 X107.717 Y87.043 E2.22207
G1 X107.534 Y86.513 E2.28862
G1 X107.457 Y86.064 E2.34271
G1 X107.439 Y85.740 E2.38129
G1 X107.483 Y85.198 E2.44582
G1 X107.615 Y84.698 E2.50730
G1 X107.739 Y84.397 E2.54595
G1 X107.976 Y83.973 E2.60359
G1 X108.328 Y83.538 E2.67006
G1 X108.717 Y83.198 E2.73138
G1 X108.988 Y83.019 E2.76997
G1 X109.413 Y82.805 E2.82649
G1 X109.945 Y82.641 E2.89263
G1 X110.496 Y82.574 E2.95852 F1800.000
G1 X110.969 Y82.595 E3.01480
G1 X111.280 Y82.647 E3.05222
G1 X111.780 Y82.797 E3.11423
G1 X112.283 Y83.053 E3.18121
G1 X112.680 Y83.348 E3.23997
G1 X112.906 Y83.564 E3.27713
G1 X113.231 Y83.966 E3.33853
G1 X113.506 Y84.468 E3.40644
G1 X113.661 Y84.913 E3.46242
G1 X113.728 Y85.217 E3.49941
G1 X113.773 Y85.726 E3.56011
G1 X113.730 Y86.264 E3.62422
G1 X113.584 Y86.818 E3.69224
G1 X113.389 Y87.248 E3.74832
G1 X113.228 Y87.513 E3.78519
G1 X112.907 Y87.917 E3.84642
G1 X112.474 Y88.299 E3.91504
G1 X112.033 Y88.566 E3.97628
G1 X111.749 Y88.692 E4.01317
G1 X111.299 Y88.831 E4.06910
G1 X110.739 Y88.906 E4.13615
G1 X110.175 Y88.878 E4.20316
G1 X109.712 Y88.777 E4.25947
G1 X109.413 Y88.673 E4.29715
G1 X108.987 Y88.458 E4.35381
G1 X109.312 Y87.822 F7800.000
G1 X108.966 Y87.562 E4.40517 F1800.000
G1 X108.709 Y87.292 E4.44943
G1 X108.583 Y87.123 E4.47454
G1 X108.371 Y86.748 E4.52564
G1 X108.228 Y86.335 E4.57758
G1 X108.168 Y85.984 E4.61990
G1 X108.155 Y85.749 E4.64778
G1 X108.190 Y85.319 E4.69900
G1 X108.294 Y84.925 E4.74740
G1 X108.383 Y84.708 E4.77531
G1 X108.570 Y84.375 E4.82063
G1 X108.844 Y84.035 E4.87254
G1 X109.151 Y83.767 E4.92088
G1 X109.347 Y83.638 E4.94878
G1 X109.680 Y83.470 E4.99311
G1 X110.094 Y83.342 E5.04456
G1 X110.523 Y83.290 E5.09586 F1800.000
G1 X110.895 Y83.307 E5.14005
G1 X111.118 Y83.344 E5.16689
G1 X111.513 Y83.463 E5.21594
G1 X111.905 Y83.662 E5.26818
G1 X112.218 Y83.894 E5.31443
G1 X112.379 Y84.049 E5.34096
G1 X112.635 Y84.366 E5.38934
G1 X112.851 Y84.759 E5.44264
G1 X112.973 Y85.108 E5.48650
G1 X113.021 Y85.325 E5.51296
G1 X113.057 Y85.729 E5.56109
G1 X113.023 Y86.143 E5.61045
G1 X112.909 Y86.577 E5.66378
G1 X112.756 Y86.914 E5.70768
G1 X112.641 Y87.104 E5.73410
G1 X112.388 Y87.423 E5.78242
G1 X112.049 Y87.721 E5.83597
G1 X111.701 Y87.932 E5.88430
G1 X111.498 Y88.022 E5.91072
G1 X111.145 Y88.131 E5.95456
G1 X110.709 Y88.189 E6.00682
G1 X110.270 Y88.167 E6.05906
G1 X109.906 Y88.088 E6.10326
G1 X109.692 Y88.014 E6.13019
G1 X109.365 Y87.849 E6.17362
G1 X108.953 Y88.000 F7800.000
G1 X104.507 Y86.993 F7800.000
G1 X104.473 Y87.191 E6.19752 F1800.000
G1 X104.272 Y87.890 E6.28385
G1 X104.001 Y88.547 E6.36835
G1 X103.782 Y88.965 E6.42434
G1 X103.438 Y89.511 E6.50097
G1 X102.986 Y90.079 E6.58722
G1 X102.485 Y90.583 E6.67163
G1 X102.123 Y90.886 E6.72769
G1 X101.596 Y91.260 E6.80441
G1 X100.962 Y91.613 E6.89056
G1 X100.290 Y91.895 E6.97717
G1 X99.590 Y92.100 E7.06376
G1 X98.892 Y92.222 E7.14790
G1 X98.417 Y92.262 E7.20457
G1 X97.713 Y92.259 E7.28819
G1 X97.070 Y92.187 E7.36501
G1 X96.606 Y92.095 E7.42116
G1 X95.924 Y91.896 E7.50550
G1 X95.255 Y91.616 E7.59173
G1 X94.689 Y91.304 E7.66847
G1 X94.295 Y91.043 E7.72456
G1 X93.740 Y90.598 E7.80899
G1 X93.228 Y90.083 E7.89528
G1 X92.825 Y89.579 E7.97193
G1 X92.560 Y89.189 E8.02796
G1 X92.217 Y88.565 E8.11248
G1 X91.940 Y87.893 E8.19882
G1 X91.759 Y87.274 E8.27539
G1 X91.664 Y86.813 E8.33135
G1 X91.584 Y86.105 E8.41597
