; generated by Slic3r 1.2.9 on 2018-06-22 at 13:47:59

; external perimeters extrusion width = 0.40mm
; perimeters extrusion width = 0.68mm
; infill extrusion width = 3.15mm
; solid infill extrusion width = 0.68mm
; top infill extrusion width = 0.68mm

M107
M190 S65 ; set bed temperature
M104 S205 ; set temperature
G28 ; home all axes
G1 Z5 F5000 ; lift nozzle

M109 S205 ; wait for temperature to be reached
G21 ; set units to millimeters
G90 ; use absolute coordinates
M82 ; use absolute distances for extrusion
G92 E0
G1 Z0.400 F7800.000
G1 E-2.00000 F2400.00000
G92 E0
G1 X80.399 Y75.805 F7800.000
G1 E2.00000 F2400.00000
G1 X82.162 Y74.314 E2.27422 F1800.000
G1 X84.326 Y73.509 E2.54845
G1 X85.551 Y73.396 E2.69451
G1 X114.551 Y73.396 E6.13870
G1 X116.826 Y73.793 E6.41293
G1 X118.831 Y74.937 E6.68715 F1800.000
G1 X120.331 Y76.693 E6.96138
G1 X121.146 Y78.853 E7.23560
G1 X121.265 Y80.110 E7.38557
G1 X121.265 Y99.143 E9.64603
G1 X121.163 Y119.923 E12.11396
G1 X120.755 Y122.195 E12.38818
G1 X119.601 Y124.195 E12.66241
G1 X117.838 Y125.686 E12.93663
G1 X115.674 Y126.491 E13.21086
G1 X114.449 Y126.604 E13.35692
G1 X85.449 Y126.604 E16.80111
G1 X83.174 Y126.207 E17.07534
G1 X81.169 Y125.063 E17.34956
G1 X79.669 Y123.307 E17.62378
G1 X78.854 Y121.147 E17.89801
G1 X78.735 Y119.890 E18.04798
G1 X78.735 Y100.857 E20.30843
G1 X78.837 Y80.077 E22.77636
G1 X79.245 Y77.805 E23.05059
G1 X80.369 Y75.857 E23.31769
G1 E21.31769 F2400.00000
G92 E0
G1 X112.933 Y112.070 F7800.000
G1 E2.00000 F2400.00000
G1 X112.667 Y112.313 E2.04286 F1800.000
G1 X112.491 Y112.441 E2.06874
G1 X112.142 Y112.631 E2.11597
G1 X111.740 Y112.769 E2.16632
G1 X111.381 Y112.829 E2.20959
G1 X111.139 Y112.840 E2.23838
G1 X110.718 Y112.802 E2.28858
G1 X110.366 Y112.712 E2.33176
G1 X110.158 Y112.631 E2.35821
G1 X109.783 Y112.425 E2.40909
G1 X109.365 Y112.071 E2.47417
G1 X109.099 Y111.734 E2.52516
G1 X108.897 Y111.356 E2.57606
G1 X108.784 Y111.027 E2.61736
G1 X108.734 Y110.803 E2.64466
G1 X108.698 Y110.382 E2.69481
G1 X108.732 Y109.984 E2.74221
G1 X108.781 Y109.760 E2.76949
G1 X108.894 Y109.431 E2.81082
G1 X109.095 Y109.052 E2.86170
G1 X109.365 Y108.708 E2.91364
G1 X109.789 Y108.350 E2.97952
G1 X110.165 Y108.144 E3.03051
G1 X110.567 Y108.009 E3.08082
G1 X110.912 Y107.951 E3.12233
G1 X111.139 Y107.939 E3.14935 F1800.000
G1 X111.554 Y107.973 E3.19876
G1 X111.771 Y108.020 E3.22515
G1 X112.115 Y108.137 E3.26834
G1 X112.495 Y108.341 E3.31955
G1 X112.828 Y108.605 E3.36999
G1 X113.071 Y108.870 E3.41276
G1 X113.199 Y109.047 E3.43863
G1 X113.390 Y109.396 E3.48598
G1 X113.531 Y109.814 E3.53826
G1 X113.590 Y110.170 E3.58112
G1 X113.600 Y110.389 E3.60722
G1 X113.562 Y110.819 E3.65851
G1 X113.472 Y111.169 E3.70137
G1 X113.394 Y111.372 E3.72725
G1 X113.206 Y111.724 E3.77460
G1 X112.971 Y112.022 E3.81974
G1 X113.030 Y112.417 F7800.000
G1 E1.81974 F2400.00000
G92 E0
G1 X108.485 Y111.874 F7800.000
G1 X106.284 Y112.239 F7800.000
G1 X106.258 Y111.782 F7800.000
G1 X106.248 Y111.558 F7800.000
G1 X106.246 Y111.497 F7800.000
G1 X106.246 Y111.479 F7800.000
G1 X104.297 Y111.162 F7800.000
G1 X105.130 Y111.148 F7800.000
G1 E2.00000 F2400.00000
G1 X104.984 Y111.977 E2.09992 F1800.000
G1 X104.775 Y112.653 E2.18400
G1 X104.493 Y113.306 E2.26842
G1 X104.141 Y113.924 E2.35285
G1 X103.735 Y114.485 E2.43511
G1 X103.434 Y114.832 E2.48968
G1 X102.986 Y115.273 E2.56436
G1 X102.433 Y115.713 E2.64834
G1 X101.831 Y116.093 E2.73279
G1 X101.190 Y116.406 E2.81754
G1 X100.536 Y116.641 E2.90009
G1 X100.088 Y116.758 E2.95505
G1 X99.467 Y116.869 E3.02999
G1 X98.759 Y116.920 E3.11428
G1 X98.065 Y116.894 E3.19679
G1 X97.610 Y116.836 E3.25132
G1 X96.994 Y116.707 E3.32600
G1 X96.322 Y116.492 E3.40979
G1 X95.692 Y116.212 E3.49170
G1 X95.286 Y115.987 E3.54683
G1 X94.714 Y115.602 E3.62872
G1 X94.172 Y115.144 E3.71300
G1 X93.685 Y114.633 E3.79681
G1 X93.301 Y114.136 E3.87146
G1 X93.051 Y113.751 E3.92593
G1 X92.726 Y113.141 E4.00800
G1 X92.463 Y112.485 E4.09191
G1 X92.293 Y111.882 E4.16642
G1 X92.203 Y111.433 E4.22080
G1 X92.128 Y110.745 E4.30300
G1 X92.128 Y110.035 E4.38729
G1 X92.205 Y109.329 E4.47158
G1 X92.354 Y108.654 E4.55375
G1 X92.492 Y108.217 E4.60815
G1 X92.727 Y107.635 E4.68270
G1 X93.059 Y107.012 E4.76658
G1 X93.459 Y106.425 E4.85087
G1 X93.920 Y105.886 E4.93516
G1 X94.436 Y105.399 E5.01944
G1 X94.987 Y104.984 E5.10135
G1 X95.380 Y104.737 E5.15648
G1 X95.994 Y104.423 E5.23836
G1 X96.653 Y104.172 E5.32214
G1 X97.261 Y104.010 E5.39684
G1 X97.713 Y103.927 E5.45136
G1 X98.402 Y103.864 E5.53364 F1800.000
G1 X99.112 Y103.876 E5.61792
G1 X99.738 Y103.952 E5.69286
G1 X100.192 Y104.045 E5.74781
G1 X100.858 Y104.244 E5.83037
G1 X101.515 Y104.521 E5.91514
G1 X102.137 Y104.868 E5.99974
G1 X102.713 Y105.278 E6.08371
G1 X103.185 Y105.694 E6.15842
G1 X103.505 Y106.024 E6.21300
G1 X103.941 Y106.562 E6.29524
G1 X104.325 Y107.160 E6.37966
G1 X104.643 Y107.796 E6.46409
G1 X104.888 Y108.460 E6.54816
G1 X105.042 Y109.069 E6.62271
G1 X105.121 Y109.521 E6.67719
G1 X105.178 Y110.212 E6.75958
G1 X105.159 Y110.906 E6.84198
G1 X105.137 Y111.089 E6.86389
G1 X104.421 Y111.065 F7800.000
G1 X104.290 Y111.802 E6.95286 F1800.000
G1 X104.104 Y112.405 E7.02783
G1 X103.853 Y112.986 E7.10301
G1 X103.540 Y113.537 E7.17819
G1 X103.175 Y114.041 E7.25205
G1 X102.913 Y114.342 E7.29951
G1 X102.512 Y114.737 E7.36642
G1 X102.018 Y115.130 E7.44132
G1 X101.483 Y115.468 E7.51652
G1 X100.912 Y115.747 E7.59200
G1 X100.324 Y115.958 E7.66614
G1 X99.935 Y116.060 E7.71394
G1 X99.379 Y116.159 E7.78105
G1 X98.747 Y116.205 E7.85625
G1 X98.124 Y116.181 E7.93036
G1 X97.728 Y116.131 E7.97776
G1 X97.176 Y116.016 E8.04464
G1 X96.577 Y115.824 E8.11940
G1 X96.011 Y115.572 E8.19300
G1 X95.659 Y115.377 E8.24077
G1 X95.145 Y115.031 E8.31436
G1 X94.662 Y114.624 E8.38941
G1 X94.228 Y114.168 E8.46418
G1 X93.884 Y113.722 E8.53104
G1 X93.666 Y113.388 E8.57841
G1 X93.374 Y112.840 E8.65211
G1 X93.140 Y112.255 E8.72694
G1 X92.988 Y111.714 E8.79372
G1 X92.909 Y111.323 E8.84102
G1 X92.842 Y110.706 E8.91481
G1 X92.842 Y110.074 E8.98987
G1 X92.910 Y109.446 E9.06492
G1 X93.044 Y108.839 E9.13869
G1 X93.165 Y108.459 E9.18601
G1 X93.375 Y107.938 E9.25281
G1 X93.672 Y107.382 E9.32762
G1 X94.027 Y106.860 E9.40268
G1 X94.438 Y106.379 E9.47773
G1 X94.898 Y105.946 E9.55279
G1 X95.392 Y105.572 E9.62640
G1 X95.733 Y105.359 E9.67416
G1 X96.285 Y105.076 E9.74775
G1 X96.873 Y104.852 E9.82250
G1 X97.417 Y104.707 E9.88939
G1 X97.810 Y104.636 E9.93679
G1 X98.429 Y104.578 E10.01069 F1800.000
G1 X99.062 Y104.589 E10.08588
G1 X99.623 Y104.658 E10.15299
G1 X100.018 Y104.738 E10.20079
G1 X100.616 Y104.917 E10.27493
G1 X101.201 Y105.164 E10.35042
G1 X101.755 Y105.473 E10.42576
G1 X102.269 Y105.839 E10.50066
G1 X102.692 Y106.211 E10.56758
G1 X102.970 Y106.498 E10.61505
G1 X103.361 Y106.981 E10.68890
G1 X103.704 Y107.514 E10.76408
G1 X103.986 Y108.080 E10.83926
G1 X104.205 Y108.672 E10.91422
G1 X104.344 Y109.218 E10.98105
G1 X104.412 Y109.611 E11.02846
G1 X104.463 Y110.232 E11.10240
G1 X104.428 Y111.005 E11.19436
G1 X103.712 Y110.981 F7800.000
G1 X103.597 Y111.628 E11.27237 F1800.000
G1 X103.433 Y112.158 E11.33823
G1 X103.213 Y112.667 E11.40417
G1 X102.938 Y113.150 E11.47010
G1 X102.615 Y113.596 E11.53556
G1 X102.392 Y113.853 E11.57592
G1 X102.038 Y114.202 E11.63505
G1 X101.604 Y114.547 E11.70088
G1 X101.134 Y114.844 E11.76682
G1 X100.634 Y115.088 E11.83303
G1 X100.113 Y115.276 E11.89875
G1 X99.782 Y115.362 E11.93940
G1 X99.290 Y115.450 E11.99868
G1 X98.735 Y115.490 E12.06479
G1 X98.182 Y115.469 E12.13050
G1 X97.846 Y115.426 E12.17078
G1 X97.359 Y115.324 E12.22986
G1 X96.832 Y115.156 E12.29558
G1 X96.330 Y114.932 E12.36088
G1 X96.032 Y114.767 E12.40128
G1 X95.576 Y114.460 E12.46658
G1 X95.152 Y114.103 E12.53240
G1 X94.770 Y113.702 E12.59812
G1 X94.467 Y113.308 E12.65720
G1 X94.282 Y113.024 E12.69746
G1 X94.023 Y112.539 E12.76280
G1 X93.818 Y112.025 E12.82854
G1 X93.682 Y111.546 E12.88759
G1 X93.616 Y111.214 E12.92782
G1 X93.556 Y110.667 E12.99319
G1 X93.556 Y110.113 E13.05902
G1 X93.616 Y109.562 E13.12485
G1 X93.735 Y109.024 E13.19021
G1 X93.837 Y108.701 E13.23045
G1 X94.023 Y108.240 E13.28951
G1 X94.284 Y107.752 E13.35524
G1 X94.596 Y107.294 E13.42107
G1 X94.956 Y106.872 E13.48689
G1 X95.359 Y106.492 E13.55272
G1 X95.798 Y106.161 E13.61802
G1 X96.086 Y105.980 E13.65842
G1 X96.576 Y105.730 E13.72372
G1 X97.093 Y105.533 E13.78943
G1 X97.573 Y105.405 E13.84852
G1 X97.907 Y105.344 E13.88879
G1 X98.456 Y105.293 E13.95432 F1800.000
G1 X99.013 Y105.302 E14.02042
G1 X99.508 Y105.363 E14.07970
G1 X99.844 Y105.431 E14.12034
G1 X100.374 Y105.590 E14.18607
G1 X100.887 Y105.807 E14.25228
G1 X101.373 Y106.078 E14.31835
G1 X101.825 Y106.399 E14.38419
G1 X102.199 Y106.728 E14.44332
G1 X102.435 Y106.972 E14.48368
G1 X102.782 Y107.401 E14.54914
G1 X103.082 Y107.868 E14.61507
G1 X103.330 Y108.364 E14.68101
G1 X103.522 Y108.884 E14.74686
G1 X103.645 Y109.367 E14.80596
G1 X103.703 Y109.701 E14.84630
G1 X103.748 Y110.251 E14.91179
G1 X103.719 Y110.921 E14.99148
G1 X104.028 Y111.225 F7800.000
G1 X112.621 Y113.977 F7800.000
G1 X112.621 Y118.062 E15.47659 F1800.000
G1 X87.277 Y118.062 E18.48649
G1 X87.277 Y102.718 E20.30875
G1 X112.621 Y102.718 E23.31866
G1 X112.621 Y106.801 E23.80355
G1 X112.154 Y106.641 E23.86217
G1 X111.763 Y106.557 E23.90965
G1 X111.159 Y106.508 E23.98160
G1 X110.755 Y106.529 E24.02960
G1 X110.219 Y106.619 E24.09419
G1 X109.591 Y106.831 E24.17292
G1 X108.977 Y107.166 E24.25605
G1 X108.332 Y107.712 E24.35637
G1 X107.893 Y108.270 E24.44064
G1 X107.580 Y108.860 E24.52004
G1 X107.404 Y109.374 E24.58453
G1 X107.317 Y109.769 E24.63257
G1 X107.264 Y110.382 E24.70560
G1 X107.319 Y111.020 E24.78169
G1 X107.407 Y111.416 E24.82983
G1 X107.583 Y111.928 E24.89416
G1 X107.898 Y112.518 E24.97365
G1 X108.332 Y113.068 E25.05675
G1 X108.969 Y113.608 E25.15601
G1 X109.554 Y113.929 E25.23524
G1 X109.929 Y114.074 E25.28301
G1 X110.475 Y114.214 E25.34988
G1 X111.108 Y114.272 E25.42540
G1 X111.534 Y114.252 E25.47605
G1 X112.092 Y114.158 E25.54333
G1 X112.564 Y113.996 E25.60251
G1 X113.335 Y112.713 F7800.000
G1 X113.335 Y118.776 E26.32257 F1800.000
G1 X86.563 Y118.776 E29.50211
G1 X86.563 Y102.004 E31.49401
G1 X113.335 Y102.004 E34.67355
G1 X113.335 Y108.095 E35.39696
G1 X112.888 Y107.741 E35.46460
G1 X112.401 Y107.480 E35.53029
G1 X111.962 Y107.331 E35.58533
G1 X111.658 Y107.265 E35.62226
G1 X111.149 Y107.224 E35.68294
G1 X110.833 Y107.240 E35.72046
G1 X110.393 Y107.314 E35.77350
G1 X109.878 Y107.487 E35.83802
G1 X109.383 Y107.758 E35.90509
G1 X108.849 Y108.210 E35.98818
G1 X108.494 Y108.661 E36.05629
G1 X108.237 Y109.145 E36.12143
G1 X108.092 Y109.567 E36.17434
G1 X108.024 Y109.877 E36.21200
G1 X107.981 Y110.382 E36.27221
G1 X108.026 Y110.911 E36.33533
G1 X108.096 Y111.221 E36.37306
G1 X108.240 Y111.642 E36.42587
G1 X108.499 Y112.126 E36.49106
G1 X108.848 Y112.569 E36.55811
G1 X109.376 Y113.017 E36.64028
G1 X109.856 Y113.280 E36.70533
G1 X110.147 Y113.393 E36.74245
G1 X110.596 Y113.508 E36.79747
G1 X111.123 Y113.556 E36.86033
G1 X111.457 Y113.540 E36.90005
G1 X111.916 Y113.463 E36.95533
G1 X112.430 Y113.287 E37.01986
G1 X112.872 Y113.046 E37.07958
G1 X113.286 Y112.748 E37.14021
G1 X114.049 Y119.490 F7800.000
G1 X85.849 Y119.490 E40.48939 F1800.000
G1 X85.849 Y101.290 E42.65091
G1 X114.049 Y101.290 E46.00009
G1 X114.049 Y119.430 E48.15449
G1 X113.703 Y119.290 F7800.000
G1 X110.510 Y117.626 F7800.000
G1 X105.273 Y112.389 E49.07212 F1800.000
G1 X104.982 Y113.152 E49.17327
G1 X109.456 Y117.626 E49.95724
G1 X108.403 Y117.626 E50.08779
G1 X104.623 Y113.846 E50.75006
G1 X104.203 Y114.480 E50.84424
G1 X107.349 Y117.626 E51.39555
G1 X106.295 Y117.626 E51.52609
G1 X103.730 Y115.060 E51.97562
G1 X103.198 Y115.582 E52.06794
G1 X105.242 Y117.626 E52.42607
G1 X104.188 Y117.626 E52.55661
G1 X102.610 Y116.048 E52.83310
G1 X101.964 Y116.456 E52.92774
G1 X103.134 Y117.626 E53.13278
G1 X102.081 Y117.626 E53.26333
G1 X101.733 Y117.278 E53.32423
G1 X105.485 Y111.548 F7800.000
G1 X111.564 Y117.626 E54.38927 F1800.000
G1 X112.185 Y117.194 E54.48306
G1 X109.396 Y114.404 E54.97182
G1 X110.734 Y114.690 E55.14140
G1 X112.185 Y116.140 E55.39560
G1 X112.185 Y115.087 E55.52614
G1 X111.735 Y114.636 E55.60507
G1 X107.137 Y112.146 F7800.000
G1 X105.598 Y110.607 E55.87464 F1800.000
G1 X105.571 Y109.526 E56.00858
G1 X106.850 Y110.805 E56.23260
G1 X106.895 Y109.796 E56.35771
G1 X105.320 Y108.222 E56.63358
G1 X104.351 Y106.199 F7800.000
G1 X107.124 Y108.972 E57.11952 F1800.000
G1 X107.466 Y108.260 E57.21737
G1 X102.359 Y103.154 E58.11213
G1 X103.413 Y103.154 E58.24267
G1 X107.907 Y107.647 E59.03004
G1 X108.442 Y107.129 E59.12236
G1 X104.467 Y103.154 E59.81896
G1 X105.520 Y103.154 E59.94950
G1 X109.055 Y106.689 E60.56889
G1 X109.773 Y106.352 E60.66706
G1 X106.574 Y103.154 E61.22755
G1 X107.628 Y103.154 E61.35809
G1 X110.609 Y106.135 E61.88056
G1 X111.623 Y106.096 E62.00630
G1 X108.681 Y103.154 E62.52183
G1 X109.735 Y103.154 E62.65238
G1 X112.185 Y105.604 E63.08171
G1 X112.185 Y104.550 E63.21226
G1 X110.788 Y103.154 E63.45698
G1 X111.842 Y103.154 E63.58752
G1 X112.185 Y103.497 E63.64762
G1 X102.853 Y104.701 F7800.000
G1 X101.689 Y103.537 E63.85151 F1800.000
G1 X101.272 Y103.525 F7800.000
G1 X100.341 Y103.390 E64.08817 F1800.000
G1 X99.209 Y103.301 E64.37413
G1 X99.210 Y103.298 F7800.000
G1 X98.088 Y103.304 E64.50736 F1800.000
G1 X98.088 Y103.304 F7800.000
G1 X97.130 Y103.371 E64.74915 F1800.000
G1 X96.029 Y103.514 E65.02865
G1 X95.567 Y103.500 F7800.000
G1 X95.221 Y103.154 E65.08797 F1800.000
G1 X94.190 Y103.154 E65.21281
G1 X95.356 Y104.319 E65.41252
G1 X94.721 Y104.715 E65.50315
G1 X93.160 Y103.154 E65.77063
G1 X92.130 Y103.154 E65.89546
G1 X94.141 Y105.165 E66.24012
G1 X93.614 Y105.668 E66.32841
G1 X91.099 Y103.154 E66.75932
G1 X90.069 Y103.154 E66.88416
G1 X93.140 Y106.225 E67.41038
G1 X92.723 Y106.838 E67.50023
G1 X89.039 Y103.154 E68.13146
G1 X88.008 Y103.154 E68.25629
G1 X92.362 Y107.508 E69.00237
G1 X92.068 Y108.243 E69.09837
G1 X87.713 Y103.888 E69.84456
G1 X87.713 Y104.919 E69.96940
G1 X91.849 Y109.055 E70.67813
G1 X91.714 Y109.951 E70.78787
G1 X87.713 Y105.949 E71.47352
G1 X87.713 Y106.980 E71.59836
G1 X91.696 Y110.963 E72.28084
G1 X91.873 Y112.170 E72.42874
G1 X87.713 Y108.010 E73.14162
G1 X87.713 Y109.040 E73.26646
G1 X92.494 Y113.821 E74.08563
G1 X92.177 Y117.626 F7800.000
G1 X87.713 Y113.162 E74.85059 F1800.000
G1 X87.713 Y114.192 E74.97543
G1 X91.147 Y117.626 E75.56384
G1 X90.116 Y117.626 E75.68868
G1 X87.713 Y115.222 E76.10054
G1 X87.713 Y116.253 E76.22538
G1 X89.086 Y117.626 E76.46069
G1 X88.056 Y117.626 E76.58553
G1 X87.713 Y117.283 E76.64430
G1 X87.713 Y112.131 F7800.000
G1 X93.207 Y117.626 E77.58581 F1800.000
G1 X94.238 Y117.626 E77.71065
G1 X87.713 Y111.101 E78.82870
G1 X87.713 Y110.071 E78.95354
G1 X95.268 Y117.626 E80.24814
G1 X95.660 Y116.988 E80.33890
G1 X95.234 Y116.561 E80.41194
G1 X96.038 Y117.252 F7800.000
G1 X96.836 Y117.375 E80.61519 F1800.000
G1 X98.060 Y117.480 E80.92459
G1 X98.060 Y117.478 F7800.000
G1 X98.757 Y117.491 E81.00741 F1800.000
G1 X99.273 Y117.473 E81.06869
G1 X99.273 Y117.473 F7800.000
G1 X100.242 Y117.401 E81.31338 F1800.000
G1 X101.257 Y117.247 E81.57190
G1 E79.57190 F2400.00000
G92 E0
G1 X114.449 Y100.890 F7800.000
G1 X114.449 Y100.000 F7800.000
G1 X114.551 Y100.003 F7800.000
G1 X114.551 Y99.110 F7800.000
G1 X102.077 Y96.827 F7800.000
G1 E2.00000 F2400.00000
G1 X101.422 Y97.096 E2.08411 F1800.000
G1 X100.654 Y97.326 E2.17928
G1 X99.773 Y97.492 E2.28574
G1 X99.092 Y97.551 E2.36700
G1 X98.407 Y97.551 E2.44827
G1 X97.516 Y97.460 E2.55473
G1 X96.731 Y97.297 E2.64989
G1 X96.079 Y97.095 E2.73101
G1 X95.445 Y96.838 E2.81225
G1 X94.652 Y96.419 E2.91873
G1 X93.987 Y95.972 E3.01392
G1 X93.457 Y95.538 E3.09534
G1 X92.824 Y94.905 E3.20165
G1 X92.389 Y94.374 E3.28307
G1 X91.942 Y93.709 E3.37825
G1 X91.523 Y92.916 E3.48474
G1 X91.265 Y92.281 E3.56620
G1 X91.035 Y91.513 E3.66136
G1 X90.869 Y90.632 E3.76783
G1 X90.810 Y89.951 E3.84909
G1 X90.810 Y89.267 E3.93035
G1 X90.901 Y88.375 E4.03681
G1 X91.064 Y87.590 E4.13197
G1 X91.267 Y86.935 E4.21344
G1 X91.616 Y86.109 E4.31991
G1 X92.005 Y85.408 E4.41509
